local/templates/.default/frontend/main/images/icons/tw.svg

<svg width="36" height="36" viewBox="0 0 36 36" fill="none" xmlns="http://www.w3.org/2000/svg">
<path fill-rule="evenodd" clip-rule="evenodd" d="M18 36C27.9411 36 36 27.9411 36 18C36 8.05887 27.9411 0 18 0C8.05887 0 0 8.05887 0 18C0 27.9411 8.05887 36 18 36ZM28.6452 12.5814C28.7323 12.5236 28.8476 12.5324 28.9251 12.6026C29.0025 12.6728 29.0223 12.7866 28.9732 12.8788C28.2714 14.1982 27.3882 14.7042 26.9882 14.8753C27.587 17.4969 26.8777 20.3475 25.0257 22.7292C22.9462 25.4034 19.7647 27 16.5153 27H16.5138C13.5623 26.9995 10.643 25.7148 8.0715 23.2845C7.99988 23.2168 7.97977 23.1109 8.02162 23.0217C8.06347 22.9324 8.15787 22.8803 8.25567 22.8919C8.8478 22.9627 9.4167 22.9986 9.94675 22.9986H9.94733C11.8979 22.9985 13.4488 22.5051 14.4324 21.5715C14.8927 21.1345 15.1311 20.6933 15.2455 20.4216C14.3434 20.3476 12.3091 19.8941 11.4603 18.7277C11.2833 18.4845 11.3393 18.2863 11.3885 18.1897C11.5178 17.9361 11.9165 17.7837 12.4158 17.6949C11.7785 17.4708 11.0552 17.1017 10.4399 16.4942C10.0208 16.0804 10.045 15.7207 10.1391 15.4918C10.3244 15.041 10.9162 14.7549 11.4701 14.6082C10.4606 14.173 8.90989 13.2943 8.18901 11.7982C8.15565 11.7291 8.15931 11.6478 8.19867 11.582C8.23804 11.5162 8.30783 11.4745 8.38447 11.471C8.72141 11.4556 9.05874 11.4479 9.38712 11.4479C12.7647 11.4479 15.0822 12.2698 16.4315 12.9593C17.3148 13.4106 17.9081 13.8615 18.2483 14.1578C18.3085 13.7467 18.4457 13.1242 18.7581 12.4812C19.2524 11.4643 20.2918 10.2107 22.437 10.0135C22.5348 10.0046 22.6333 10 22.7298 10C24.456 10 25.4548 11.4023 25.7452 11.8805C26.1558 11.7848 27.2773 11.4851 28.0598 10.9145C28.1291 10.864 28.221 10.8565 28.2975 10.8952C28.3741 10.9339 28.4226 11.0122 28.423 11.0979C28.4269 11.9502 27.8248 12.6116 27.3086 13.0324C27.7403 12.9666 28.2598 12.8369 28.6452 12.5814Z" fill="#848487"/>
</svg>

<svg width="36" height="36" fill="none" xmlns="http://www.w3.org/2000/svg"><path fill-rule="evenodd" clip-rule="evenodd" d="M18 36c9.941 0 18-8.059 18-18S27.941 0 18 0 0 8.059 0 18s8.059 18 18 18zm10.645-23.419a.229.229 0 0 1 .328.298c-.702 1.32-1.585 1.825-1.985 1.996.599 2.622-.11 5.473-1.962 7.854-2.08 2.674-5.261 4.271-8.51 4.271h-.002c-2.952 0-5.871-1.285-8.442-3.715a.228.228 0 0 1 .184-.393c.592.07 1.16.107 1.69.107h.001c1.95 0 3.502-.494 4.485-1.427a3.46 3.46 0 0 0 .813-1.15c-.902-.074-2.936-.528-3.785-1.694-.177-.244-.12-.442-.072-.538.13-.254.528-.406 1.028-.495-.638-.224-1.36-.593-1.976-1.2-.42-.415-.395-.774-.3-1.003.184-.451.776-.737 1.33-.884-1.01-.435-2.56-1.314-3.281-2.81a.228.228 0 0 1 .195-.327c.337-.015.675-.023 1.003-.023 3.378 0 5.695.822 7.044 1.511.884.452 1.477.902 1.817 1.199.06-.411.198-1.034.51-1.677.494-1.017 1.534-2.27 3.679-2.467.098-.01.196-.014.293-.014 1.726 0 2.725 1.402 3.015 1.88.41-.095 1.532-.395 2.315-.966a.229.229 0 0 1 .363.184c.004.852-.598 1.514-1.114 1.934.431-.065.95-.195 1.336-.45z" fill="#848487"/></svg>
